!!! OTL: Berkowitz247
!!! Chapter: 1
!!! Section: II
!!! Page: 57
!!! Mode: 
!!! Encoder: DJB
**kern
*staff1
*I"Piano
=1-
*clefC3
*k[b-e-a-d-]
*A-:
*M4/4
4A-/
4c\
4dn\
8e-\
8r
=2
4cc\
4b-\
4a-\
8e-\
8r
=3
4G/
4B-/
4dn\
8e-\
8r
=4
4b-\
4a-\
4g\
4r
=5
4A-/
4c\
4dn\
8e-\
8r
=6
4d-\
4f\
4g\
8a-\
8r
=7
4cc\
[4cc\
8cc\L]
8a-\J
4b-\
=8
!!linebreak:original
2a-\
4A-/
4r
==
*-
